X: 18981
T: Inisheer
R: waltz
M: 3/4
K: Gminor
|:d3cdf|d3cdf|G3dcd|F3dcB|d3cdf|d3cdf|B3d c1/2B1/2A|1 B3GFB:|2 B3 cdf||
g3agf|d3cdf|gag fc/d/f|g3 cdf|g3 agf|d3 cdf|B3 dc/B/A|B3 cdf|
g3agf|d3cdf|bag fc/d/f|g3 aba|g3 agf|d3 cdf|F3 dc/B/A|B6||

